X: 38628
T: Stop Your Ticklin' Jock
R: barndance
M: 4/4
K: Amajor
cB|AFEC E2 Ec/B/|AFEC E2 E2|A>Bc>B AGFE|FBBc B2 Bc/B/|
AFEC E2 Ec/c/|ccBA B2 Bc/d/|ee c/B/A ee c/B/A|Ec B/c/B A2:|

